X: 43218
T: With Marley To Galicia
R: polka
M: 2/4
K: Gmajor
|:DG GA|Bc A2|BG AF|GE D2|
dB c/B/A|BG AF|d2 dB|AG G2:|
|:B/^c/d ed|e=f ed|B/^c/d gd|gB A2|
B/^c/d ed|e=f ed|f/g/f/e/ dB|AG G2:|

